svg/regular/bx-book-content.svg

<svg xmlns="http://www.w3.org/2000/svg" width="24" height="24"><path d="M20 3H4c-1.103 0-2 .897-2 2v14c0 1.103.897 2 2 2h16c1.103 0 2-.897 2-2V5c0-1.103-.897-2-2-2zM4 19V5h7v14H4zm9 0V5h7l.001 14H13z"/><path d="M15 7h3v2h-3zm0 4h3v2h-3z"/></svg>

<svg xmlns="http://www.w3.org/2000/svg" width="24" height="24" viewBox="0 0 24 24"><path d="M20,3H4C2.897,3,2,3.897,2,5v14c0,1.103,0.897,2,2,2h16c1.103,0,2-0.897,2-2V5C22,3.897,21.103,3,20,3z M4,19V5h7v14H4z M13,19V5h7l0.001,14H13z"/><path d="M15 7H18V9H15zM15 11H18V13H15z"/></svg>
